X:204
T:Man from Bundoran
Z: id:dc-reel-193
M:C
L:1/8
K:A Major
dc|BEE2 BEdE|BEE2 BcdB|cAA2 cdeA|cdef ef:|!
K:D Major
ge|f2fe dcBA|fgfe d3e|f2fe fgaf|ecAc ef:|!
